X: 177
T: A Feg For A Kiss
R: slip jig
M: 9/8
K: Eminor
E2B BGE BGE|FDF AFd AFD|EFG ABc BGE|e2B AGF E2B,|
E2B BGE BGE|FDF AFd AFD|EFG ABc BGE|e2B AGF E2d||
eBe geg bge|dAd fdf afd|eBe geg bge|gfe Be^d e2d|
eBe geg bge|dAd fdf afd|g2e edB BAF|d2B AGF E2D||

